icons/Editor/translate-2.svg

<svg viewBox="0 0 24 24" xmlns="http://www.w3.org/2000/svg"><path d="M18.5 10L22.9 21H20.745L19.544 18H15.454L14.255 21H12.101L16.5 10H18.5ZM10 2V4H16V6L14.0322 6.0006C13.2425 8.36616 11.9988 10.5057 10.4115 12.301C11.1344 12.9457 11.917 13.5176 12.7475 14.0079L11.9969 15.8855C10.9237 15.2781 9.91944 14.5524 8.99961 13.7249C7.21403 15.332 5.10914 16.5553 2.79891 17.2734L2.26257 15.3442C4.2385 14.7203 6.04543 13.6737 7.59042 12.3021C6.46277 11.0281 5.50873 9.57985 4.76742 8.00028L7.00684 8.00037C7.57018 9.03885 8.23979 10.0033 8.99967 10.877C10.2283 9.46508 11.2205 7.81616 11.9095 6.00101L2 6V4H8V2H10ZM17.5 12.8852L16.253 16H18.745L17.5 12.8852Z"/></svg>

<svg xmlns="http://www.w3.org/2000/svg" viewBox="0 0 24 24">
    <g>
        <path fill="none" d="M0 0h24v24H0z"/>
        <path d="M18.5 10l4.4 11h-2.155l-1.201-3h-4.09l-1.199 3h-2.154L16.5 10h2zM10 2v2h6v2h-1.968a18.222 18.222 0 0 1-3.62 6.301 14.864 14.864 0 0 0 2.336 1.707l-.751 1.878A17.015 17.015 0 0 1 9 13.725a16.676 16.676 0 0 1-6.201 3.548l-.536-1.929a14.7 14.7 0 0 0 5.327-3.042A18.078 18.078 0 0 1 4.767 8h2.24A16.032 16.032 0 0 0 9 10.877a16.165 16.165 0 0 0 2.91-4.876L2 6V4h6V2h2zm7.5 10.885L16.253 16h2.492L17.5 12.885z"/>
    </g>
</svg>
